X:1
T:Title
L:1/8
Q:1/4=90
M:6/8
K:C
V:1 treble nm="Church Organ, Staff"
V:1
 F2 A A2 G | F2 E G2 F | A2 _B c2 c | e2 d c3 | c2 d c2 G | A2 G G2 F | F2 F F2 F | F2 E F3 | %8
w: By~F.~W.~Dawkins * * *||||||||
 GAG c2 G | edc BAG | G2 G c2 c | B2 c d3 | c3 c f2 | d c2 _B B2 | A A2 A d2 | d c2 E F2- | %16
w: ||||||||
 F3 z3 |] %17
w: |

